X: 1271
T: FRANKFORT WALTZ
B: Oliver Ditson "The Boston Collection of Instrumental Music" 1910 p.127 #1
F: http://conquest.imslp.info/files/imglnks/usimg/8/8f/IMSLP175643-PMLP309456-bostoncollection00bost_bw.pdf
%: 2012 John Chambers <jc:trillian.mit.edu>
M: 3/4
L: 1/8
K: G
DEF |\
G3FGA | B3AGF | (F2E2)E2 | E3GFE |\
(E2D2)D2 | D3edc | B3dce | d3def |
g3fga | b3agf | (f2e2)e2 | e2(agfe) |\
(ed)(^cd)(cd) | d(efga)b | g3bab | f2z2 H:|
d'>d' |\
d'2d2_e2 | ^c2d2=c2 | _B2A2G2 | d3def |\
gabdef | gabdef | gabc'd'f | g4 ]
K: C
|: g>^f |\
(gc')(eg)(ce) | G3ceg | fdBagf | ^d2e ^fgf |\
(gc')(eg)(ce) | G3ceg | f(dBag)B | c4 :|
|: Bc |\
dBGg^fg | (ecG)g^fg | fdBdag | f(e^de)f^f |\
(gc')(eg)(ce) | G3ceg | fdBagB | c4 "^D.C.":|

%%sep 1 1 500
%%sep 1 1 500
